icons/volume-up-line.svg

<svg xmlns="http://www.w3.org/2000/svg" width="24" height="24" fill="none"><g clip-path="url(#a)"><g><path fill="#121212" d="M10 7.22001L6.603 10H3V14H6.603L10 16.78V7.22001ZM5.889 16H2C1.73478 16 1.48043 15.8946 1.29289 15.7071C1.10536 15.5196 1 15.2652 1 15V9.00001C1 8.73479 1.10536 8.48044 1.29289 8.2929C1.48043 8.10536 1.73478 8.00001 2 8.00001H5.889L11.183 3.66801C11.2563 3.60795 11.3451 3.56994 11.4391 3.5584C11.5331 3.54686 11.6284 3.56226 11.714 3.6028C11.7996 3.64335 11.872 3.70738 11.9226 3.78744C11.9732 3.8675 12.0001 3.96029 12 4.05501V19.945C12.0001 20.0397 11.9732 20.1325 11.9226 20.2126C11.872 20.2926 11.7996 20.3567 11.714 20.3972C11.6284 20.4378 11.5331 20.4532 11.4391 20.4416C11.3451 20.4301 11.2563 20.3921 11.183 20.332L5.89 16H5.889ZM19.406 20.134L17.99 18.718C18.938 17.8745 19.6964 16.8397 20.2152 15.6817C20.734 14.5237 21.0015 13.2689 21 12C21.0012 10.6661 20.7054 9.34866 20.1339 8.14338C19.5624 6.9381 18.7296 5.87524 17.696 5.03201L19.116 3.61201C20.3345 4.64355 21.3132 5.92849 21.9841 7.3772C22.6549 8.82591 23.0016 10.4035 23 12C23 15.223 21.614 18.122 19.406 20.134ZM15.863 16.591L14.441 15.169C14.9265 14.7957 15.3196 14.3157 15.5899 13.7662C15.8602 13.2167 16.0006 12.6124 16 12C16 10.57 15.25 9.31501 14.12 8.60801L15.559 7.16901C16.3165 7.7262 16.9321 8.45386 17.3562 9.29312C17.7802 10.1324 18.0008 11.0597 18 12C18 13.842 17.17 15.49 15.863 16.591Z"/></g></g><defs><clipPath id="a"><rect width="24" height="24" fill="white"/></clipPath></defs></svg>

<svg width="24" height="24" fill="none" xmlns="http://www.w3.org/2000/svg"><g clip-path="url(#a)"><path d="M10 7.22 6.603 10H3v4h3.603L10 16.78V7.22ZM5.889 16H2a1 1 0 0 1-1-1V9a1 1 0 0 1 1-1h3.889l5.294-4.332a.5.5 0 0 1 .817.387v15.89a.5.5 0 0 1-.817.387L5.89 16h-.001Zm13.517 4.134-1.416-1.416A8.977 8.977 0 0 0 21 12a8.983 8.983 0 0 0-3.304-6.968l1.42-1.42A10.977 10.977 0 0 1 23 12c0 3.223-1.386 6.122-3.594 8.134Zm-3.543-3.543-1.422-1.422A3.993 3.993 0 0 0 16 12c0-1.43-.75-2.685-1.88-3.392l1.439-1.439A5.991 5.991 0 0 1 18 12c0 1.842-.83 3.49-2.137 4.591Z" /></g><defs><clipPath id="a"><path fill="#fff" d="M0 0h24v24H0z"/></clipPath></defs></svg>
